assets/quality.cube
TITLE "Quality Warm Contrast"
LUT_3D_SIZE 2
DOMAIN_MIN 0.0 0.0 0.0
DOMAIN_MAX 1.0 1.0 1.0
0.020000 0.020000 0.030000
0.020000 0.040000 1.000000
0.020000 0.850000 0.040000
0.020000 0.860000 1.000000
0.950000 0.030000 0.020000
0.950000 0.040000 1.000000
0.960000 0.900000 0.030000
1.000000 0.920000 1.000000
